content/images/project/skywalking.svg

<svg width="36" height="36" viewBox="0 0 36 36" fill="none" xmlns="http://www.w3.org/2000/svg">
<path d="M0 4C0 1.79086 1.79086 0 4 0H32C34.2091 0 36 1.79086 36 4V32C36 34.2091 34.2091 36 32 36H4C1.79086 36 0 34.2091 0 32V4Z" fill="#3987CD"/>
<path fill-rule="evenodd" clip-rule="evenodd" d="M26 15.4233V15.4868L24.1888 25.2222C23.9499 26.4921 23.6315 27 22.4174 27H21.88C20.8052 27 20.2479 26.4497 19.9891 25.3492L18.4168 18.873C18.3969 18.7884 18.3969 18.7672 18.3571 18.7672C18.3173 18.7672 18.3173 18.7884 18.2973 18.873L16.725 25.3492C16.4662 26.4497 15.9089 27 14.8341 27H14.2967C13.0826 27 12.7642 26.4921 12.5253 25.2222L12.0086 22.313C11.978 22.4503 12.029 22.2658 12.1617 21.7595C12.3608 21 12.3608 21 12.3608 21L13.2794 17.4941C13.4784 17.4941 13.7234 17.4941 13.7234 17.4941C13.7234 17.4941 14.0339 19.7738 14.655 24.3333C14.6749 24.5238 14.7147 24.6296 14.7545 24.6296C14.7943 24.6296 14.854 24.545 14.8939 24.3333L16.5458 17.2222C16.7449 16.3968 16.9837 16.3122 17.6604 16.3122H19.0537C19.7304 16.3122 19.9692 16.3968 20.1683 17.2222L21.8203 24.3333C21.8601 24.545 21.9198 24.6296 21.9596 24.6296C21.9994 24.6296 22.0392 24.5238 22.0591 24.3333L23.313 15.381C23.3329 15.1905 23.4723 15 23.6713 15H25.6019C25.8209 15 26 15.1905 26 15.4233Z" fill="white"/>
<path fill-rule="evenodd" clip-rule="evenodd" d="M11 23.4203C11 25.1502 9.81875 27 6.06875 27C4.6625 27 3.65 26.8801 2.75 26.6917C2.5625 26.6574 2.39375 26.5375 2.39375 26.3491V25.1159C2.39375 24.9275 2.5625 24.7905 2.75 24.7905H2.7875C3.5375 24.8762 5.4125 24.9618 6.10625 24.9618C7.775 24.9618 8.28125 24.4137 8.28125 23.4203C8.28125 22.7523 7.925 22.4097 6.6875 21.7418L4.2125 20.3887C2.46875 19.4466 2 18.4532 2 17.2543C2 15.3702 3.2 14 6.6875 14C7.925 14 9.65 14.1713 10.2875 14.3083C10.475 14.3426 10.625 14.4625 10.625 14.6337V15.9012C10.625 16.0725 10.4937 16.2095 10.3062 16.2095H10.2688C9.03125 16.1067 7.79375 16.0382 6.575 16.0382C5.1875 16.0382 4.60625 16.4835 4.60625 17.2543C4.60625 17.8195 4.925 18.1621 6.14375 18.7787L8.39375 19.9262C10.4563 20.971 11 22.0672 11 23.4203Z" fill="white"/>
<path d="M20.6208 10.4486C21.0339 10.3554 21.4615 10.297 21.8902 10.274C26.1893 10.0436 29.8587 13.4017 30.0826 17.7714C30.1593 19.2669 29.8055 20.7507 29.093 22.0405C32.1274 20.9452 34.182 17.953 34.007 14.5376C33.7939 10.3797 30.2954 7.17801 26.2046 7.39727C23.9679 7.51716 21.9238 8.66602 20.6208 10.4486Z" fill="white" fill-opacity="0.6"/>
</svg>

<svg xmlns="http://www.w3.org/2000/svg" width="36" height="36" fill="none" viewBox="0 0 36 36"><path fill="#3987CD" d="M0 4a4 4 0 0 1 4-4h28a4 4 0 0 1 4 4v28a4 4 0 0 1-4 4H4a4 4 0 0 1-4-4V4Z"/><path fill="#fff" fill-rule="evenodd" d="M26 15.423v.064l-1.811 9.735c-.24 1.27-.558 1.778-1.772 1.778h-.537c-1.075 0-1.632-.55-1.89-1.65l-1.573-6.477c-.02-.085-.02-.106-.06-.106-.04 0-.04.021-.06.106l-1.572 6.476c-.259 1.1-.816 1.651-1.89 1.651h-.538c-1.214 0-1.533-.508-1.772-1.778l-.516-2.909c-.031.137.02-.047.153-.553l.199-.76.918-3.506h.444l.932 6.84c.02.19.06.296.1.296.04 0 .099-.085.139-.297l1.652-7.11c.199-.826.438-.91 1.114-.91h1.394c.676 0 .915.084 1.114.91l1.652 7.11c.04.212.1.297.14.297.04 0 .08-.106.1-.297l1.253-8.952c.02-.19.16-.381.358-.381h1.93c.22 0 .399.19.399.423ZM11 23.42C11 25.15 9.819 27 6.069 27c-1.407 0-2.419-.12-3.319-.308-.188-.035-.356-.154-.356-.343v-1.233c0-.189.168-.325.356-.325h.038c.75.085 2.624.17 3.318.17 1.669 0 2.175-.547 2.175-1.54 0-.669-.356-1.011-1.594-1.68L4.213 20.39C2.469 19.447 2 18.453 2 17.254 2 15.37 3.2 14 6.688 14c1.237 0 2.962.171 3.6.308.187.035.337.155.337.326V15.9a.306.306 0 0 1-.319.308h-.037a44.782 44.782 0 0 0-3.694-.17c-1.388 0-1.969.444-1.969 1.215 0 .566.319.908 1.538 1.525l2.25 1.147C10.456 20.971 11 22.067 11 23.42Z" clip-rule="evenodd"/><path fill="#fff" fill-opacity=".6" d="M20.62 10.449a7.65 7.65 0 0 1 1.27-.175c4.3-.23 7.969 3.128 8.193 7.497a8.005 8.005 0 0 1-.99 4.27c3.034-1.096 5.089-4.088 4.914-7.503-.213-4.158-3.712-7.36-7.802-7.14-2.237.12-4.281 1.268-5.584 3.05Z"/></svg>
